svg/300/outlined/drag_pan-fill.svg

<svg xmlns="http://www.w3.org/2000/svg" width="48" height="48" viewBox="0 -960 960 960"><path d="M480-93.847 328.924-244.923l33.23-33.23 95.154 95.154v-274.309H182.999l91.308 91.693-33.23 32.845L93.847-480l148.23-148.23 33.23 33.23-92.308 92.308h274.309v-274.309L366-685.693l-33.23-33.23L480-866.153l147.23 147.23-33.23 33.23-91.308-91.308v274.309h274.309l-91.308-91.693 33.23-32.845L866.153-480l-147.23 147.23-33.23-33.23 91.308-91.308H502.692v274.309l95.154-95.154 33.23 33.23L480-93.847Z"/></svg>

<svg xmlns="http://www.w3.org/2000/svg" width="48" height="48" viewBox="0 -960 960 960"><path d="M480-93.85 328.92-244.92l33.23-33.23L457.31-183v-274.31H183l91.31 91.69-33.23 32.85L93.85-480l148.23-148.23L275.31-595 183-502.69h274.31V-777L366-685.69l-33.23-33.23L480-866.15l147.23 147.23L594-685.69 502.69-777v274.31H777l-91.31-91.69 33.23-32.85L866.15-480 718.92-332.77 685.69-366 777-457.31H502.69V-183l95.16-95.15 33.23 33.23L480-93.85Z"/></svg>
